src/assets/outline/Radar.svg

<svg width="24" height="24" viewBox="0 0 24 24"  xmlns="http://www.w3.org/2000/svg">
<path d="M12 22.7502C6.07 22.7502 1.25 17.9302 1.25 12.0002C1.25 10.1202 1.73999 8.27026 2.67999 6.64026C2.88999 6.28026 3.34001 6.16023 3.70001 6.36023L12.37 11.3402C12.73 11.5502 12.85 12.0002 12.65 12.3602C12.44 12.7202 11.99 12.8403 11.63 12.6403L3.63 8.05023C3.05 9.28023 2.75 10.6202 2.75 11.9902C2.75 17.0902 6.9 21.2402 12 21.2402C17.1 21.2402 21.25 17.0902 21.25 11.9902C21.25 6.89023 17.1 2.74023 12 2.74023C9.98 2.74023 8.06001 3.38024 6.45001 4.59024C6.12001 4.84024 5.64999 4.77025 5.39999 4.44025C5.14999 4.11025 5.21999 3.64026 5.54999 3.39026C7.41999 1.99026 9.65 1.24023 12 1.24023C17.93 1.24023 22.75 6.06023 22.75 11.9902C22.75 17.9202 17.93 22.7502 12 22.7502Z" />
</svg>

<?xml version="1.0" encoding="UTF-8"?>
<svg width="24" height="24" viewBox="0 0 24 24" xmlns="http://www.w3.org/2000/svg">
 <path d="m12 22.75c-5.93 0-10.75-4.82-10.75-10.75 0-1.88 0.48999-3.7299 1.43-5.3599 0.21-0.36 0.66002-0.48003 1.02-0.28003l8.67 4.98c0.36 0.21 0.48 0.66 0.28 1.02-0.21 0.36-0.66 0.4801-1.02 0.2801l-8-4.5901c-0.58 1.23-0.88 2.57-0.88 3.94 0 5.1 4.15 9.25 9.25 9.25s9.25-4.15 9.25-9.25c0-5.1-4.15-9.25-9.25-9.25-2.02 0-3.94 0.64001-5.55 1.85-0.33 0.25-0.80002 0.18001-1.05-0.14999s-0.18-0.79999 0.15-1.05c1.87-1.4 4.1-2.15 6.45-2.15 5.93 0 10.75 4.82 10.75 10.75 0 5.93-4.82 10.76-10.75 10.76z"/>
</svg>
